X:224
T:McDermott's
Z: id:dc-reel-205
M:C
L:1/8
K:D Major
FG|Adde fded|ABAG EFDe|fded cAAG|EFGE D2de|!
fded A3G|EGG2 ABde|fded cAAG|EFGE D2:|!
FG|Adde fage|dfed cAAF|G3A GEE2|edcA GEE2|!
Adde fage|dfed cAAe|f2df gee2|fage d2:|!

